X:1
T:Dese Bones Gwine To Rise Again
M:2/2
L:1/8
K:F
 F2 F2 F2 C2| F2 F2 F2 z2| A2 c4 A3/2 A/2| G3 F F4| FF FF F2 CC| FF FF F2 z2|\
 A2 c4 A3/2 A/2| G3 F F4| c4 dc z2| c c3 d c3| A2 c4 A3/2 A/2| G3 F F4|\
